X:1
T:Kitchener, 87.87 D
T:Kitchener, 87.87 D
T:Robert Lowry, 1873
T:Public Domain Courtesy of the Cyber Hymnal™
C:Robert Lowry, 1873
Z:Public Domain
Z:Courtesy of the Cyber Hymnal™
%%score ( 1 2 ) ( 3 4 )
L:1/8
Q:1/4=105
M:none
K:G
V:1 treble 
V:2 treble 
V:3 bass 
V:4 bass 
V:1
 [GB]3 [DA] [DG]2 [DG]2 | (FG) (AF) [DG]2 D2 | [Gc]3 [GB] [DA]2 [DG]2 | (FG) ([FA][GB]) [FA]4 | %4
 [GB]3 [DA] [DG]2 [DG]2 | (FG) (AF) [DG]2 D2 | [Gd]3 [Gc] [GB]2 (cB) | [GB]2 [FA]2 G4 | %8
 [FA]3 [FA] [Fd]2 [Ac]2 | ([GB][Ac]) ([GB][FA]) [GB]2 G2 | [Ec]3 [=Fd] [Ge]2 [Ge]2 | %11
 (de) (dB) [FA]4 | [GB]3 [DA] [DG]2 [DG]2 | (FG) (AF) [DG]2 D2 | [Gd]3 [Gc] [GB]2 (cB) | %15
 [GB]2 [FA]2 G4 |] %16
V:2
 x8 | D2 D2 x D2 x | x8 | D2 x6 | x8 | D2 D2 x D2 x | x6 G2 | x4 G4 | x8 | x6 (D=F) | x8 | %11
 G2 G2 x4 | x8 | D2 D2 x D2 x | x6 G2 | x4 G4 |] %16
V:3
 [G,D]3 [G,C] [G,B,]2 [G,B,]2 | (A,B,) (CA,) [G,B,]2 [G,B,]2 | [G,E]3 [G,D] [F,C]2 [G,B,]2 | %3
 (A,B,) [D,C]2 [D,D]4 | [G,D]3 [G,C] [G,B,]2 [G,B,]2 | (A,B,) (CA,) [G,B,]2 [G,B,]2 | %6
 [G,B,]3 [G,E] [G,D]2 [C,E]2 | [D,D]2 [D,C]2 [G,,B,]4 | [D,D]3 [D,D] [D,A,]2 [D,D]2 | %9
 [D,D]2 [D,D]2 [G,D]2 [G,B,]2 | [C,C]3 [C,C] [C,C]2 [E,C]2 | (B,C) (B,D) [D,D]4 | %12
 [G,D]3 [G,C] [G,B,]2 [G,B,]2 | (A,B,) (CA,) [G,B,]2 [G,B,]2 | [G,B,]3 [G,E] [G,D]2 [C,E]2 | %15
 [D,D]2 [D,C]2 [G,,B,]4 |] %16
V:4
 x8 | D,2 D,2 x4 | x8 | D,2 x6 | x8 | D,2 D,2 x4 | x8 | x8 | x8 | x8 | x8 | G,2 G,2 x4 | x8 | %13
 D,2 D,2 x4 | x8 | x8 |] %16

